X: 167
T: The Old Leather Breeches
N:"Spirited" "collected by F. O'Neill"
B:O'Neill's 167
Z:Transcribed by henrik.norbeck@mailbox.swipnet.se
M:6/8
L:1/8
K:C
(B/c/)|">"d>BA ">"d>BA|(GFE) (F2 (F/G/))|A>BA .A.B.c|B>AG c2 (B/c/)|
">"d>BA ">"d>BA|(GFE) (F2 F/G/)|A>BA AHdc|BAG c2||
(B/A/)|G>AG (EDHC)|F>GA (FEHD)|.E.F.G .A.B.c|.B.A.G c2 (B/A/)|
G>AG EDHC|F>GA FEHD|.E.F.G .AHdc|BAG c2||


